X:1
T:Title
%%score { ( 1 4 ) | ( 2 3 ) }
L:1/8
Q:1/4=100
M:4/4
K:Bb
V:1 treble nm="Grand Piano"
V:4 treble 
V:2 bass 
V:3 bass 
V:1
 [B,D][B,D][B,D][B,D] [DF]2 [B,DF]2 | [B,DG][B,DG][B,D][DG] [F,B,DF]2 .[F,B,DG]2 | A6[K:bass] z2 | %3
w: Fred.~C.~Pullin * * * * *|||
 F8 | [B,D][B,D][B,D][B,D] [DF]2 [B,DF]2 | [B,DG][B,DG][B,D][DG] [F,B,DF]2 z2 | A6[K:bass] z2 | %7
w: ||||
[M:3/4] [F,A,D]6 |[M:1/4][K:treble] F z |[M:4/4] A6 z2 | [A,CF]6 z2 | %11
w: ||||
 [EG][EG][EG][EG] [Gd]2 [EGd]2 | [Gc]2 [EGc]2 z2 B,2 | FF[DF][DF] [Fc]2 [DFc]2 | %14
w: |||
 [FB]2 [DFB]2 [DF]4 | [B,D^FB][FB][B,DFB][FB] [B,DFB]2 Bc | [DFBd]2 [DFB]2 [B,CA]2 [B,CG]2 | %17
w: |||
 [B,DF][B,DF][B,DF][B,DF] [A,EG]2 [A,EF]2 | [B,DF]4 [F,B,D]4 | %19
w: ||
 [A,EF][A,EF][A,EF][A,EF] [A,EG]2 [A,EF]2 | B2- [EB-]2 [DB]4 |] %21
w: ||
V:2
 [B,,F,]2 [F,,F,]2 [B,,F,B,]2 [F,,F,]2 | [B,,F,]2 z B, B,,2 z[K:treble] B | %2
 [C,F,A,]2 F,,2 C,2 z G | B,,2 =B,,2 B,,2 F,,2 | [B,,F,]2 [F,,F,]2 [B,,F,B,]2 [F,,F,]2 | %5
 [B,,F,]2 z B, B,,2[K:treble] GB | [A,,F,]2 D,2 A,,2 z F |[M:3/4] D,2 A,,2 D,,2 |[M:1/4] z G | %9
[M:4/4] C,,2 F,,2 A,,2 z[K:treble] c | F,2 C,2 F,,4 | [E,B,]2 [B,,B,]2 [E,B,E]2 [B,,B,]2 | %12
 [E,B,E]2 [B,,B,]2 [E,B,]2 B,,2 | DD [B,,B,]2 [D,B,D]2 [B,,B,]2 | %14
 [D,B,D]2 [B,,B,]2 [D,B,]2 [B,,B,]2 | z [B,D] z [B,D] [^F,,^F,]2 [F,,F,]2 | %16
 [F,,F,]2 [F,,F,]2 [=E,,=E,]2 [E,,E,]2 | [F,,F,]2 [D,,D,]2 [C,,C,]2 [F,,,F,,]2 | %18
 [B,,,B,,]2 [F,,,F,,]2 [B,,,B,,]2 [D,,D,]2 | [C,,C,]2 [F,,,F,,]2 [C,,C,]2 [F,,,F,,]2 | %20
 F,2 G,2 F,4 |] %21
V:3
 x8 | z2 [F,,F,]2 z2 F,,2[K:treble] | z4 z2 F,,2 | x8 | x8 | z2 [F,,F,]2 z4[K:treble] | %6
 z4 z2 A,,2 |[M:3/4] x6 |[M:1/4] _D,,2 |[M:4/4] z4 z2 C,2[K:treble] | x8 | x8 | x8 | %13
 [D,B,]2 z2 z4 | x8 | [^F,,^F,]2 [F,,F,]2 z4 | x8 | x8 | x8 | x8 | B,,8 |] %21
V:4
 x8 | x8 | E2[K:bass] [F,A,E]2 [F,A,E]2 .[F,A,E]2 | [F,B,D]2 [F,_A,D]2 [F,=A,E]4 | x8 | x8 | %6
 D2[K:bass] [F,A,]2 [F,D]2 .[G,_D=E]2 |[M:3/4] x6 |[M:1/4][K:treble] [_A,_D]2 | %9
[M:4/4] [A,CF]2 [A,CF]2 [A,CF]2 .[B,=EG]2 | x8 | x8 | z4 [EG]4 | x8 | x8 | z4 z2 [B,D^F]2 | x8 | %17
 x8 | x8 | x8 | D2 z2 z4 |] %21

